flaticon/emoticons/smile.svg

<svg xmlns="http://www.w3.org/2000/svg" width="32" height="32" viewBox="0 0 24 24">
    <path d="M 12 0 C 5.382812 0 0 5.382812 0 12 C 0 18.617188 5.382812 24 12 24 C 18.617188 24 24 18.617188 24 12 C 24 5.382812 18.617188 0 12 0 Z M 12 22.910156 C 5.984375 22.910156 1.089844 18.015625 1.089844 12 C 1.089844 5.984375 5.984375 1.089844 12 1.089844 C 18.015625 1.089844 22.910156 5.984375 22.910156 12 C 22.910156 18.015625 18.015625 22.910156 12 22.910156 Z M 12 22.910156"/>
    <path d="M9.273438 7.910156C9.273438 8.964844 8.417969 9.816406 7.363281 9.816406 6.308594 9.816406 5.453125 8.964844 5.453125 7.910156 5.453125 6.855469 6.308594 6 7.363281 6 8.417969 6 9.273438 6.855469 9.273438 7.910156zM18 7.910156C18 8.964844 17.144531 9.816406 16.089844 9.816406 15.035156 9.816406 14.183594 8.964844 14.183594 7.910156 14.183594 6.855469 15.035156 6 16.089844 6 17.144531 6 18 6.855469 18 7.910156zM18 13.089844C17.699219 13.089844 17.453125 13.335938 17.453125 13.636719 17.453125 16.644531 15.007812 19.089844 12 19.089844 8.992188 19.089844 6.546875 16.644531 6.546875 13.636719 6.546875 13.335938 6.300781 13.089844 6 13.089844 5.699219 13.089844 5.453125 13.335938 5.453125 13.636719 5.453125 17.246094 8.390625 20.183594 12 20.183594 15.609375 20.183594 18.546875 17.246094 18.546875 13.636719 18.546875 13.335938 18.300781 13.089844 18 13.089844zM18 13.089844"/>
</svg>

<svg xmlns="http://www.w3.org/2000/svg" width="32" height="32" viewBox="0 0 24 24">
    <path d="M12 0C5.383 0 0 5.383 0 12s5.383 12 12 12 12-5.383 12-12S18.617 0 12 0zm0 22.91C5.984 22.91 1.09 18.016 1.09 12S5.984 1.09 12 1.09 22.91 5.984 22.91 12 18.016 22.91 12 22.91zm0 0"/>
    <path d="M9.273 7.91a1.907 1.907 0 0 1-1.91 1.906 1.907 1.907 0 1 1 0-3.816 1.91 1.91 0 0 1 1.91 1.91zm0 0M18 7.91a1.907 1.907 0 0 1-1.91 1.906 1.904 1.904 0 0 1-1.906-1.906 1.907 1.907 0 1 1 3.816 0zm0 0M18 13.09c-.3 0-.547.246-.547.547A5.458 5.458 0 0 1 12 19.09a5.458 5.458 0 0 1-5.453-5.453c0-.301-.246-.547-.547-.547-.3 0-.547.246-.547.547A6.555 6.555 0 0 0 12 20.184a6.555 6.555 0 0 0 6.547-6.547c0-.301-.246-.547-.547-.547zm0 0"/>
</svg>
